assets/features/payment-flow/Banco de Oro.svg

<svg width="200" height="200" viewBox="0 0 200 200" fill="none" xmlns="http://www.w3.org/2000/svg">
<rect width="200" height="200" rx="40" fill="#064CAF"/>
<g clip-path="url(#clip0_316_53)">
<path fill-rule="evenodd" clip-rule="evenodd" d="M59.0264 76.5193C69.0779 77.8902 70.7239 83.1421 71.1585 87.0047C71.6116 91.0618 69.6605 94.9244 65.3236 97.4068C71.0383 98.9907 73.7015 101.658 74.9313 104.4V76.3525L95.8666 76.4359C116.783 77.427 122.59 90.9136 122.692 99.6947C122.785 108.115 116.497 120.953 97.9102 122.203L74.9313 122.37V114.682C74.0066 116.562 72.5918 118.035 71.1678 119.137C68.5694 121.166 64.8705 121.953 61.5694 122.287L30.2497 122.463L30 76.3525L59.0264 76.5193ZM40.7266 82.5215V95.6469L53.0621 95.6932C58.4993 95.4153 60.0066 91.9047 59.9974 89.2185C59.9789 86.7454 58.8322 83.4756 53.0621 82.4382L40.7266 82.5215ZM85.9168 116.155L92.8151 116.238C107.768 116.275 110.31 105.762 110.347 99.4446C110.394 91.8399 106.103 82.4104 92.8151 82.5679L86.0832 82.4752L85.9168 116.155ZM40.7728 101.918V116.284H56.8534C63.7332 115.747 65.0277 111.671 64.8983 108.911C64.7596 105.771 62.5588 102.344 56.6869 101.751L40.7728 101.918Z" fill="white"/>
<path fill-rule="evenodd" clip-rule="evenodd" d="M142.795 123.991C127.76 123.991 115.6 113.042 115.6 99.5C115.6 85.9486 127.76 75 142.795 75C157.84 75 170 85.9486 170 99.5C170 113.042 157.84 123.991 142.795 123.991ZM158.635 99.3333C158.635 88.9312 151.617 80.5299 142.943 80.5299C134.269 80.5299 127.251 88.9312 127.251 99.3333C127.251 109.735 134.269 118.137 142.943 118.137C151.617 118.137 158.635 109.735 158.635 99.3333Z" fill="#FFB20C"/>
</g>
<defs>
<clipPath id="clip0_316_53">
<rect width="140" height="49" fill="white" transform="translate(30 75)"/>
</clipPath>
</defs>
</svg>

<svg xmlns="http://www.w3.org/2000/svg" width="200" height="200" fill="none" viewBox="0 0 200 200"><rect width="200" height="200" fill="#064caf" rx="40"/><g fill-rule="evenodd" clip-path="url(#a)" clip-rule="evenodd"><path fill="#fff" d="M59.026 76.52c10.052 1.37 11.698 6.622 12.133 10.485.453 4.057-1.499 7.92-5.835 10.402 5.714 1.584 8.377 4.251 9.607 6.993V76.353l20.936.083c20.916.991 26.723 14.478 26.825 23.259.093 8.42-6.195 21.258-24.782 22.508l-22.979.167v-7.688c-.924 1.88-2.34 3.353-3.763 4.455-2.599 2.029-6.297 2.816-9.599 3.15l-31.32.176L30 76.353zm-18.3 6.002v13.125l12.336.046c5.437-.278 6.945-3.788 6.935-6.474-.018-2.474-1.165-5.743-6.935-6.78zm45.19 33.633 6.9.083c14.952.037 17.494-10.476 17.531-16.793.047-7.605-4.244-17.035-17.532-16.877l-6.732-.093zm-45.143-14.237v14.366h16.08c6.88-.537 8.175-4.613 8.045-7.373-.138-3.14-2.34-6.567-8.211-7.16z"/><path fill="#ffb20c" d="M142.795 123.991c-15.035 0-27.195-10.949-27.195-24.491 0-13.551 12.16-24.5 27.195-24.5C157.84 75 170 85.949 170 99.5c0 13.542-12.16 24.491-27.205 24.491m15.84-24.658c0-10.402-7.018-18.803-15.692-18.803s-15.692 8.401-15.692 18.803 7.018 18.804 15.692 18.804 15.692-8.402 15.692-18.804"/></g><defs><clipPath id="a"><path fill="#fff" d="M30 75h140v49H30z"/></clipPath></defs></svg>
